src/assets/images/svg/instagram-footer.svg

<svg class="footer-social__svg footer-social__svg_insta btn" width="41" height="35"
                                                viewBox="0 0 41 35" fill="none" xmlns="http://www.w3.org/2000/svg">
                                                <g clip-path="url(#clip0)">
                                                    <path
                                                        d="M20.5067 8.51392C14.6933 8.51392 9.98682 12.536 9.98682 17.4943C9.98682 22.457 14.6984 26.4747 20.5067 26.4747C26.3202 26.4747 31.0266 22.4527 31.0266 17.4943C31.0266 12.5316 26.3151 8.51392 20.5067 8.51392ZM20.5067 23.3233C16.733 23.3233 13.6785 20.7143 13.6785 17.4943C13.6785 14.2743 16.7347 11.6654 20.5067 11.6654C24.2787 11.6654 27.3349 14.2743 27.3349 17.4943C27.3366 20.7143 24.2804 23.3233 20.5067 23.3233Z"
                                                        fill="" />
                                                    <path
                                                        d="M28.9522 0.111892C25.1802 -0.0383163 15.8374 -0.0310246 12.062 0.111892C8.74437 0.2446 5.818 0.928558 3.45879 2.94252C-0.484047 6.30835 0.0199117 10.8438 0.0199117 17.4952C0.0199117 24.3027 -0.424255 28.7331 3.45879 32.0479C7.41699 35.4254 12.8068 34.9835 20.5062 34.9835C28.4056 34.9835 31.1321 34.9879 33.9252 34.0648C37.7228 32.8063 40.5894 29.9085 40.8696 24.7038C41.0472 21.4823 41.037 13.5081 40.8696 10.2852C40.5313 4.14127 36.6688 0.415225 28.9522 0.111892ZM34.9229 29.821C32.3382 32.0275 28.7524 31.8306 20.4567 31.8306C11.915 31.8306 8.48983 31.9385 5.99054 29.7992C3.11199 27.3535 3.63304 23.4263 3.63304 17.4719C3.63304 9.4146 2.66441 3.61189 12.1371 3.19772C14.3135 3.1321 14.9542 3.11022 20.4328 3.11022L20.5097 3.15397C29.6134 3.15397 36.7559 2.34022 37.1847 10.4252C37.2821 12.27 37.3043 12.8242 37.3043 17.4938C37.3026 24.7008 37.4632 27.6423 34.9229 29.821Z"
                                                        fill="" />
                                                    <path
                                                        d="M31.4436 10.2579C32.8013 10.2579 33.9019 9.31833 33.9019 8.15933C33.9019 7.00034 32.8013 6.06079 31.4436 6.06079C30.086 6.06079 28.9854 7.00034 28.9854 8.15933C28.9854 9.31833 30.086 10.2579 31.4436 10.2579Z"
                                                        fill="" />
                                                </g>
                                                <defs>
                                                    <clipPath id="clip0">
                                                        <rect width="41" height="35" fill="white" />
                                                    </clipPath>
                                                </defs>
                                            </svg>

<svg width="41" height="35" viewBox="0 0 41 35" fill="none" xmlns="http://www.w3.org/2000/svg"><g clip-path="url(#clip0)" fill="#fff"><path d="M20.507 8.514c-5.814 0-10.52 4.022-10.52 8.98 0 4.963 4.711 8.98 10.52 8.98 5.813 0 10.52-4.021 10.52-8.98 0-4.962-4.712-8.98-10.52-8.98zm0 14.81c-3.774 0-6.829-2.61-6.829-5.83s3.057-5.829 6.829-5.829 6.828 2.61 6.828 5.83c.002 3.22-3.055 5.828-6.828 5.828z"/><path d="M28.952.112c-3.772-.15-13.115-.143-16.89 0-3.318.133-6.244.817-8.603 2.83C-.484 6.309.019 10.845.019 17.496c0 6.808-.443 11.238 3.44 14.553 3.958 3.377 9.348 2.935 17.047 2.935 7.9 0 10.626.005 13.42-.918 3.797-1.259 6.663-4.156 6.944-9.361.177-3.222.167-11.196 0-14.419C40.53 4.141 36.669.415 28.952.112zm5.97 29.709c-2.584 2.207-6.17 2.01-14.465 2.01-8.542 0-11.967.108-14.466-2.032-2.879-2.445-2.358-6.373-2.358-12.327 0-8.057-.969-13.86 8.504-14.274 2.176-.066 2.817-.088 8.296-.088l.077.044c9.103 0 16.246-.814 16.675 7.271.097 1.845.12 2.4.12 7.069-.002 7.207.158 10.148-2.382 12.327z"/><path d="M31.444 10.258c1.357 0 2.458-.94 2.458-2.099 0-1.159-1.1-2.098-2.458-2.098s-2.459.94-2.459 2.098c0 1.16 1.101 2.099 2.459 2.099z"/></g><defs><clipPath id="clip0"><path fill="#fff" d="M0 0h41v35H0z"/></clipPath></defs></svg>
